
    MODULE Module1
        
    LOCAL PERS robtarget pWobj_O_PointX1:=[[-461.2411,432.9818,307.3925],[0.00384943885728717,0.900601506233215,-0.433763444423676,0.0274109411984682],[1,-1,0,0],[9E+09,9E+09,9E+09,9E+09,9E+09,9E+09]];
	LOCAL PERS robtarget pWobj_O_PointX2:=[[-461.2365,215.3499,309.7795],[0.00384886027313769,0.900596618652344,-0.433773398399353,0.0274143069982529],[1,-1,1,0],[9E+09,9E+09,9E+09,9E+09,9E+09,9E+09]];
	LOCAL PERS robtarget pWobj_O_PointY1:=[[-643.5861,432.9164,318.2574],[0.00384766072966158,0.900593340396881,-0.433779209852219,0.0274302940815687],[1,-1,0,0],[9E+09,9E+09,9E+09,9E+09,9E+09,9E+09]];

    CONST robtarget Target_Home:=[[563.826135077,-0.66,534.904651994],[-0.000000007,0,1,0],[-1,0,-1,0],[9E+09,9E+09,9E+09,9E+09,9E+09,9E+09]];
    CONST robtarget Target_20:=[[110,40.218,-100],[1,0,0,0],[0,0,0,0],[9E+09,9E+09,9E+09,9E+09,9E+09,9E+09]];
    CONST robtarget Target_20_2:=[[110,40.218,0],[1,0,0,0],[0,0,0,0],[9E+09,9E+09,9E+09,9E+09,9E+09,9E+09]];
    CONST robtarget Target_30:=[[125.083,57.359,0],[1,0,0,0],[0,0,0,0],[9E+09,9E+09,9E+09,9E+09,9E+09,9E+09]];
    CONST robtarget Target_40:=[[126.705,69.032,0],[1,0,0,0],[0,0,0,0],[9E+09,9E+09,9E+09,9E+09,9E+09,9E+09]];
    CONST robtarget Target_50:=[[117.471,76.356,0],[1,0,0,0],[0,0,0,0],[9E+09,9E+09,9E+09,9E+09,9E+09,9E+09]];
    CONST robtarget Target_60:=[[115.849,64.682,0],[1,0,0,0],[0,0,0,0],[9E+09,9E+09,9E+09,9E+09,9E+09,9E+09]];
    CONST robtarget Target_70:=[[148.737,56.263,0],[1,0,0,0],[0,0,0,0],[9E+09,9E+09,9E+09,9E+09,9E+09,9E+09]];
    CONST robtarget Target_80:=[[147.282,79.049,0],[1,0,0,0],[0,0,0,0],[9E+09,9E+09,9E+09,9E+09,9E+09,9E+09]];
    CONST robtarget Target_90:=[[140.174,88.45,0],[1,0,0,0],[0,0,0,0],[9E+09,9E+09,9E+09,9E+09,9E+09,9E+09]];
    CONST robtarget Target_100:=[[128.466,87.099,0],[1,0,0,0],[0,0,0,0],[9E+09,9E+09,9E+09,9E+09,9E+09,9E+09]];
    CONST robtarget Target_110:=[[135.574,77.698,0],[1,0,0,0],[0,0,0,0],[9E+09,9E+09,9E+09,9E+09,9E+09,9E+09]];
    CONST robtarget Target_120:=[[164.782,95,0],[1,0,0,0],[0,0,0,0],[9E+09,9E+09,9E+09,9E+09,9E+09,9E+09]];
    CONST robtarget Target_130:=[[147.641,110.083,0],[1,0,0,0],[0,0,0,0],[9E+09,9E+09,9E+09,9E+09,9E+09,9E+09]];
    CONST robtarget Target_140:=[[135.968,111.705,0],[1,0,0,0],[0,0,0,0],[9E+09,9E+09,9E+09,9E+09,9E+09,9E+09]];
    CONST robtarget Target_150:=[[128.644,102.471,0],[1,0,0,0],[0,0,0,0],[9E+09,9E+09,9E+09,9E+09,9E+09,9E+09]];
    CONST robtarget Target_160:=[[140.318,100.849,0],[1,0,0,0],[0,0,0,0],[9E+09,9E+09,9E+09,9E+09,9E+09,9E+09]];
    CONST robtarget Target_170:=[[148.737,133.737,0],[1,0,0,0],[0,0,0,0],[9E+09,9E+09,9E+09,9E+09,9E+09,9E+09]];
    CONST robtarget Target_180:=[[125.951,132.282,0],[1,0,0,0],[0,0,0,0],[9E+09,9E+09,9E+09,9E+09,9E+09,9E+09]];
    CONST robtarget Target_190:=[[116.55,125.174,0],[1,0,0,0],[0,0,0,0],[9E+09,9E+09,9E+09,9E+09,9E+09,9E+09]];
    CONST robtarget Target_200:=[[117.901,113.466,0],[1,0,0,0],[0,0,0,0],[9E+09,9E+09,9E+09,9E+09,9E+09,9E+09]];
    CONST robtarget Target_210:=[[127.302,120.574,0],[1,0,0,0],[0,0,0,0],[9E+09,9E+09,9E+09,9E+09,9E+09,9E+09]];
    CONST robtarget Target_220:=[[110,149.782,0],[1,0,0,0],[0,0,0,0],[9E+09,9E+09,9E+09,9E+09,9E+09,9E+09]];
    CONST robtarget Target_230:=[[94.917,132.641,0],[1,0,0,0],[0,0,0,0],[9E+09,9E+09,9E+09,9E+09,9E+09,9E+09]];
    CONST robtarget Target_240:=[[93.295,120.968,0],[1,0,0,0],[0,0,0,0],[9E+09,9E+09,9E+09,9E+09,9E+09,9E+09]];
    CONST robtarget Target_250:=[[102.529,113.644,0],[1,0,0,0],[0,0,0,0],[9E+09,9E+09,9E+09,9E+09,9E+09,9E+09]];
    CONST robtarget Target_260:=[[104.151,125.318,0],[1,0,0,0],[0,0,0,0],[9E+09,9E+09,9E+09,9E+09,9E+09,9E+09]];
    CONST robtarget Target_270:=[[71.263,133.737,0],[1,0,0,0],[0,0,0,0],[9E+09,9E+09,9E+09,9E+09,9E+09,9E+09]];
    CONST robtarget Target_280:=[[72.718,110.951,0],[1,0,0,0],[0,0,0,0],[9E+09,9E+09,9E+09,9E+09,9E+09,9E+09]];
    CONST robtarget Target_290:=[[79.826,101.55,0],[1,0,0,0],[0,0,0,0],[9E+09,9E+09,9E+09,9E+09,9E+09,9E+09]];
    CONST robtarget Target_300:=[[91.534,102.901,0],[1,0,0,0],[0,0,0,0],[9E+09,9E+09,9E+09,9E+09,9E+09,9E+09]];
    CONST robtarget Target_310:=[[84.426,112.302,0],[1,0,0,0],[0,0,0,0],[9E+09,9E+09,9E+09,9E+09,9E+09,9E+09]];
    CONST robtarget Target_320:=[[55.218,95,0],[1,0,0,0],[0,0,0,0],[9E+09,9E+09,9E+09,9E+09,9E+09,9E+09]];
    CONST robtarget Target_330:=[[72.359,79.917,0],[1,0,0,0],[0,0,0,0],[9E+09,9E+09,9E+09,9E+09,9E+09,9E+09]];
    CONST robtarget Target_340:=[[84.032,78.295,0],[1,0,0,0],[0,0,0,0],[9E+09,9E+09,9E+09,9E+09,9E+09,9E+09]];
    CONST robtarget Target_350:=[[91.356,87.529,0],[1,0,0,0],[0,0,0,0],[9E+09,9E+09,9E+09,9E+09,9E+09,9E+09]];
    CONST robtarget Target_360:=[[79.682,89.151,0],[1,0,0,0],[0,0,0,0],[9E+09,9E+09,9E+09,9E+09,9E+09,9E+09]];
    CONST robtarget Target_370:=[[71.263,56.263,0],[1,0,0,0],[0,0,0,0],[9E+09,9E+09,9E+09,9E+09,9E+09,9E+09]];
    CONST robtarget Target_380:=[[94.049,57.718,0],[1,0,0,0],[0,0,0,0],[9E+09,9E+09,9E+09,9E+09,9E+09,9E+09]];
    CONST robtarget Target_390:=[[103.45,64.826,0],[1,0,0,0],[0,0,0,0],[9E+09,9E+09,9E+09,9E+09,9E+09,9E+09]];
    CONST robtarget Target_400:=[[102.099,76.534,0],[1,0,0,0],[0,0,0,0],[9E+09,9E+09,9E+09,9E+09,9E+09,9E+09]];
    CONST robtarget Target_410:=[[92.698,69.426,0],[1,0,0,0],[0,0,0,0],[9E+09,9E+09,9E+09,9E+09,9E+09,9E+09]];
    CONST robtarget Target_420:=[[109.792,77.085,0],[1,0,0,0],[0,0,0,0],[9E+09,9E+09,9E+09,9E+09,9E+09,9E+09]];
    CONST robtarget Target_420_2:=[[109.792,77.085,-100],[1,0,0,0],[0,0,0,0],[9E+09,9E+09,9E+09,9E+09,9E+09,9E+09]];
    CONST robtarget Target_430:=[[127.916,95.138,0],[1,0,0,0],[0,0,0,0],[9E+09,9E+09,9E+09,9E+09,9E+09,9E+09]];
    CONST robtarget Target_440:=[[111.591,112.845,3],[1,0,0,0],[0,0,0,0],[9E+09,9E+09,9E+09,9E+09,9E+09,9E+09]];
    CONST robtarget Target_450:=[[92.086,95.261,0],[1,0,0,0],[0,0,0,0],[9E+09,9E+09,9E+09,9E+09,9E+09,9E+09]];
    CONST robtarget Target_460:=[[110.06,85.91,0],[1,0,0,0],[0,0,0,0],[9E+09,9E+09,9E+09,9E+09,9E+09,9E+09]];
    CONST robtarget Target_460_2:=[[110.06,85.91,-100],[1,0,0,0],[0,0,0,0],[9E+09,9E+09,9E+09,9E+09,9E+09,9E+09]];
    CONST robtarget Target_470:=[[119.09,94.925,0],[1,0,0,0],[0,0,0,0],[9E+09,9E+09,9E+09,9E+09,9E+09,9E+09]];
    CONST robtarget Target_480:=[[110.054,104.09,0],[1,0,0,0],[0,0,0,0],[9E+09,9E+09,9E+09,9E+09,9E+09,9E+09]];
    CONST robtarget Target_490:=[[100.91,95.024,0],[1,0,0,0],[0,0,0,0],[9E+09,9E+09,9E+09,9E+09,9E+09,9E+09]];
    CONST robtarget Target_850:=[[55.17,59.602,0],[1,0,0,0],[0,0,0,0],[9E+09,9E+09,9E+09,9E+09,9E+09,9E+09]];
    CONST robtarget Target_840:=[[42.866,53.255,0],[1,0,0,0],[0,0,0,0],[9E+09,9E+09,9E+09,9E+09,9E+09,9E+09]];
    CONST robtarget Target_830:=[[37.846,55.801,0],[1,0,0,0],[0,0,0,0],[9E+09,9E+09,9E+09,9E+09,9E+09,9E+09]];
    CONST robtarget Target_820:=[[36.205,61.471,0],[1,0,0,0],[0,0,0,0],[9E+09,9E+09,9E+09,9E+09,9E+09,9E+09]];
    CONST robtarget Target_810:=[[41.675,68.291,0],[1,0,0,0],[0,0,0,0],[9E+09,9E+09,9E+09,9E+09,9E+09,9E+09]];
    CONST robtarget Target_800:=[[48.393,67.76,0],[1,0,0,0],[0,0,0,0],[9E+09,9E+09,9E+09,9E+09,9E+09,9E+09]];
    CONST robtarget Target_790:=[[52.044,63.126,0],[1,0,0,0],[0,0,0,0],[9E+09,9E+09,9E+09,9E+09,9E+09,9E+09]];
    CONST robtarget Target_780:=[[51.209,57.559,0],[1,0,0,0],[0,0,0,0],[9E+09,9E+09,9E+09,9E+09,9E+09,9E+09]];
    CONST robtarget Target_770:=[[38.905,51.211,0],[1,0,0,0],[0,0,0,0],[9E+09,9E+09,9E+09,9E+09,9E+09,9E+09]];
    CONST robtarget Target_760:=[[20.086,75.712,0],[1,0,0,0],[0,0,0,0],[9E+09,9E+09,9E+09,9E+09,9E+09,9E+09]];
    CONST robtarget Target_750:=[[46.234,82.598,0],[1,0,0,0],[0,0,0,0],[9E+09,9E+09,9E+09,9E+09,9E+09,9E+09]];
    CONST robtarget Target_740:=[[44.658,91.73,0],[1,0,0,0],[0,0,0,0],[9E+09,9E+09,9E+09,9E+09,9E+09,9E+09]];
    CONST robtarget Target_730:=[[26.4,93.002,0],[1,0,0,0],[0,0,0,0],[9E+09,9E+09,9E+09,9E+09,9E+09,9E+09]];
    CONST robtarget Target_720:=[[41.088,93.468,0],[1,0,0,0],[0,0,0,0],[9E+09,9E+09,9E+09,9E+09,9E+09,9E+09]];
    CONST robtarget Target_710:=[[45.38,98.694,0],[1,0,0,0],[0,0,0,0],[9E+09,9E+09,9E+09,9E+09,9E+09,9E+09]];
    CONST robtarget Target_700:=[[44.484,105.965,0],[1,0,0,0],[0,0,0,0],[9E+09,9E+09,9E+09,9E+09,9E+09,9E+09]];
    CONST robtarget Target_690:=[[27.484,108.553,0],[1,0,0,0],[0,0,0,0],[9E+09,9E+09,9E+09,9E+09,9E+09,9E+09]];
    CONST robtarget Target_680:=[[48.091,116.157,0],[1,0,0,0],[0,0,0,0],[9E+09,9E+09,9E+09,9E+09,9E+09,9E+09]];
    CONST robtarget Target_670:=[[36.263,123.503,0],[1,0,0,0],[0,0,0,0],[9E+09,9E+09,9E+09,9E+09,9E+09,9E+09]];
    CONST robtarget Target_660:=[[35.276,129.045,0],[1,0,0,0],[0,0,0,0],[9E+09,9E+09,9E+09,9E+09,9E+09,9E+09]];
    CONST robtarget Target_650:=[[38.817,133.768,0],[1,0,0,0],[0,0,0,0],[9E+09,9E+09,9E+09,9E+09,9E+09,9E+09]];
    CONST robtarget Target_640:=[[41.862,134.93,0],[1,0,0,0],[0,0,0,0],[9E+09,9E+09,9E+09,9E+09,9E+09,9E+09]];
    CONST robtarget Target_630:=[[45.519,134.483,0],[1,0,0,0],[0,0,0,0],[9E+09,9E+09,9E+09,9E+09,9E+09,9E+09]];
    CONST robtarget Target_620:=[[47.556,133.502,0],[1,0,0,0],[0,0,0,0],[9E+09,9E+09,9E+09,9E+09,9E+09,9E+09]];
    CONST robtarget Target_610:=[[50.165,130.931,0],[1,0,0,0],[0,0,0,0],[9E+09,9E+09,9E+09,9E+09,9E+09,9E+09]];
    CONST robtarget Target_600:=[[51.174,127.816,0],[1,0,0,0],[0,0,0,0],[9E+09,9E+09,9E+09,9E+09,9E+09,9E+09]];
    CONST robtarget Target_590:=[[51.183,125.255,0],[1,0,0,0],[0,0,0,0],[9E+09,9E+09,9E+09,9E+09,9E+09,9E+09]];
    CONST robtarget Target_580:=[[49.669,122.112,0],[1,0,0,0],[0,0,0,0],[9E+09,9E+09,9E+09,9E+09,9E+09,9E+09]];
    CONST robtarget Target_570:=[[44.72,119.429,0],[1,0,0,0],[0,0,0,0],[9E+09,9E+09,9E+09,9E+09,9E+09,9E+09]];
    CONST robtarget Target_560:=[[31.603,124.099,0],[1,0,0,0],[0,0,0,0],[9E+09,9E+09,9E+09,9E+09,9E+09,9E+09]];
    CONST robtarget Target_550:=[[64.63,157.826,0],[1,0,0,0],[0,0,0,0],[9E+09,9E+09,9E+09,9E+09,9E+09,9E+09]];
    CONST robtarget Target_540:=[[56.449,150.598,0],[1,0,0,0],[0,0,0,0],[9E+09,9E+09,9E+09,9E+09,9E+09,9E+09]];
    CONST robtarget Target_530:=[[44.829,153.116,0],[1,0,0,0],[0,0,0,0],[9E+09,9E+09,9E+09,9E+09,9E+09,9E+09]];
    CONST robtarget Target_520:=[[46.441,161.925,0],[1,0,0,0],[0,0,0,0],[9E+09,9E+09,9E+09,9E+09,9E+09,9E+09]];
    CONST robtarget Target_510:=[[55.719,170.122,0],[1,0,0,0],[0,0,0,0],[9E+09,9E+09,9E+09,9E+09,9E+09,9E+09]];
    CONST robtarget Target_500:=[[73.782,149.679,0],[1,0,0,0],[0,0,0,0],[9E+09,9E+09,9E+09,9E+09,9E+09,9E+09]];
    CONST robtarget Target_770j:=[[38.905,51.211,0],[1,0,0,0],[0,0,0,0],[9E+09,9E+09,9E+09,9E+09,9E+09,9E+09]];
    CONST robtarget Target_500_2:=[[73.782,149.679,-100],[1,0,0,0],[0,0,0,0],[9E+09,9E+09,9E+09,9E+09,9E+09,9E+09]];
    CONST robtarget Target_560_2:=[[31.603,124.099,-100],[1,0,0,0],[1,-1,0,0],[9E+09,9E+09,9E+09,9E+09,9E+09,9E+09]];
    CONST robtarget Target_690_2:=[[27.484,108.553,-100],[1,0,0,0],[0,0,0,0],[9E+09,9E+09,9E+09,9E+09,9E+09,9E+09]];
    CONST robtarget Target_750_2:=[[46.234,82.598,-100],[1,0,0,0],[0,0,0,0],[9E+09,9E+09,9E+09,9E+09,9E+09,9E+09]];
    CONST robtarget Target_770j_2:=[[38.905,51.211,-100],[1,0,0,0],[0,0,0,0],[9E+09,9E+09,9E+09,9E+09,9E+09,9E+09]];
    CONST robtarget Target_850_2:=[[55.17,59.602,-100],[1,0,0,0],[0,0,0,0],[9E+09,9E+09,9E+09,9E+09,9E+09,9E+09]];
    CONST robtarget Target_860:=[[100.095,173.81,0],[1,0,0,0],[0,0,0,0],[9E+09,9E+09,9E+09,9E+09,9E+09,9E+09]];
    CONST robtarget Target_860_2:=[[100.095,173.81,-100],[1,0,0,0],[0,0,0,0],[9E+09,9E+09,9E+09,9E+09,9E+09,9E+09]];
    CONST robtarget Target_870:=[[101.564,176.992,0],[1,0,0,0],[0,0,0,0],[9E+09,9E+09,9E+09,9E+09,9E+09,9E+09]];
    CONST robtarget Target_880:=[[105.835,178.437,0],[1,0,0,0],[0,0,0,0],[9E+09,9E+09,9E+09,9E+09,9E+09,9E+09]];
    CONST robtarget Target_890:=[[109.881,178.541,0],[1,0,0,0],[0,0,0,0],[9E+09,9E+09,9E+09,9E+09,9E+09,9E+09]];
    CONST robtarget Target_900:=[[114.199,177.317,0],[1,0,0,0],[0,0,0,0],[9E+09,9E+09,9E+09,9E+09,9E+09,9E+09]];
    CONST robtarget Target_910:=[[115.849,174.257,0],[1,0,0,0],[0,0,0,0],[9E+09,9E+09,9E+09,9E+09,9E+09,9E+09]];
    CONST robtarget Target_920:=[[114.377,171.204,0],[1,0,0,0],[0,0,0,0],[9E+09,9E+09,9E+09,9E+09,9E+09,9E+09]];
    CONST robtarget Target_930:=[[111.551,169.71,0],[1,0,0,0],[0,0,0,0],[9E+09,9E+09,9E+09,9E+09,9E+09,9E+09]];
    CONST robtarget Target_940:=[[105.168,168.319,0],[1,0,0,0],[0,0,0,0],[9E+09,9E+09,9E+09,9E+09,9E+09,9E+09]];
    CONST robtarget Target_950:=[[102.936,167.163,0],[1,0,0,0],[0,0,0,0],[9E+09,9E+09,9E+09,9E+09,9E+09,9E+09]];
    CONST robtarget Target_960:=[[101.894,164.121,0],[1,0,0,0],[0,0,0,0],[9E+09,9E+09,9E+09,9E+09,9E+09,9E+09]];
    CONST robtarget Target_970:=[[103.045,162.083,0],[1,0,0,0],[0,0,0,0],[9E+09,9E+09,9E+09,9E+09,9E+09,9E+09]];
    CONST robtarget Target_980:=[[106.496,161.051,0],[1,0,0,0],[0,0,0,0],[9E+09,9E+09,9E+09,9E+09,9E+09,9E+09]];
    CONST robtarget Target_990:=[[110.134,161.145,0],[1,0,0,0],[0,0,0,0],[9E+09,9E+09,9E+09,9E+09,9E+09,9E+09]];
    CONST robtarget Target_1000:=[[113.506,162.351,0],[1,0,0,0],[0,0,0,0],[9E+09,9E+09,9E+09,9E+09,9E+09,9E+09]];
    CONST robtarget Target_1010:=[[114.815,165.034,0],[1,0,0,0],[0,0,0,0],[9E+09,9E+09,9E+09,9E+09,9E+09,9E+09]];
    CONST robtarget Target_1020:=[[144.691,171.086,0],[1,0,0,0],[0,0,0,0],[9E+09,9E+09,9E+09,9E+09,9E+09,9E+09]];
    CONST robtarget Target_1020_2:=[[144.691,171.086,-100],[1,0,0,0],[0,0,0,0],[9E+09,9E+09,9E+09,9E+09,9E+09,9E+09]];
    CONST robtarget Target_1030:=[[140.421,158.802,0],[1,0,0,0],[0,0,0,0],[9E+09,9E+09,9E+09,9E+09,9E+09,9E+09]];
    CONST robtarget Target_1040:=[[137.741,155.357,0],[1,0,0,0],[0,0,0,0],[9E+09,9E+09,9E+09,9E+09,9E+09,9E+09]];
    CONST robtarget Target_1050:=[[134.455,155.018,0],[1,0,0,0],[0,0,0,0],[9E+09,9E+09,9E+09,9E+09,9E+09,9E+09]];
    CONST robtarget Target_1060:=[[130.489,156.397,0],[1,0,0,0],[0,0,0,0],[9E+09,9E+09,9E+09,9E+09,9E+09,9E+09]];
    CONST robtarget Target_1070:=[[128.216,158.577,0],[1,0,0,0],[0,0,0,0],[9E+09,9E+09,9E+09,9E+09,9E+09,9E+09]];
    CONST robtarget Target_1080:=[[126.57,161.908,0],[1,0,0,0],[0,0,0,0],[9E+09,9E+09,9E+09,9E+09,9E+09,9E+09]];
    CONST robtarget Target_1090:=[[131.37,175.717,0],[1,0,0,0],[0,0,0,0],[9E+09,9E+09,9E+09,9E+09,9E+09,9E+09]];
    CONST robtarget Target_1100:=[[125.361,158.43,0],[1,0,0,0],[0,0,0,0],[9E+09,9E+09,9E+09,9E+09,9E+09,9E+09]];
    CONST robtarget Target_1110:=[[133.801,183.101,0],[1,0,0,0],[0,0,0,0],[9E+09,9E+09,9E+09,9E+09,9E+09,9E+09]];
    CONST robtarget Target_1110_2:=[[133.801,183.101,-100],[1,0,0,0],[0,0,0,0],[9E+09,9E+09,9E+09,9E+09,9E+09,9E+09]];
    CONST robtarget Target_1120:=[[138.754,178.564,0],[1,0,0,0],[0,0,0,0],[9E+09,9E+09,9E+09,9E+09,9E+09,9E+09]];
    CONST robtarget Target_1130:=[[154.549,160.761,0],[1,0,0,0],[0,0,0,0],[9E+09,9E+09,9E+09,9E+09,9E+09,9E+09]];
    CONST robtarget Target_1130_2:=[[154.549,160.761,-100],[1,0,0,0],[0,0,0,0],[9E+09,9E+09,9E+09,9E+09,9E+09,9E+09]];
    CONST robtarget Target_1140:=[[157.753,162.183,0],[1,0,0,0],[0,0,0,0],[9E+09,9E+09,9E+09,9E+09,9E+09,9E+09]];
    CONST robtarget Target_1150:=[[161.915,160.452,0],[1,0,0,0],[0,0,0,0],[9E+09,9E+09,9E+09,9E+09,9E+09,9E+09]];
    CONST robtarget Target_1160:=[[165.025,157.86,0],[1,0,0,0],[0,0,0,0],[9E+09,9E+09,9E+09,9E+09,9E+09,9E+09]];
    CONST robtarget Target_1170:=[[167.462,154.092,0],[1,0,0,0],[0,0,0,0],[9E+09,9E+09,9E+09,9E+09,9E+09,9E+09]];
    CONST robtarget Target_1180:=[[166.684,150.704,0],[1,0,0,0],[0,0,0,0],[9E+09,9E+09,9E+09,9E+09,9E+09,9E+09]];
    CONST robtarget Target_1190:=[[163.563,149.38,0],[1,0,0,0],[0,0,0,0],[9E+09,9E+09,9E+09,9E+09,9E+09,9E+09]];
    CONST robtarget Target_1200:=[[160.454,150.122,0],[1,0,0,0],[0,0,0,0],[9E+09,9E+09,9E+09,9E+09,9E+09,9E+09]];
    CONST robtarget Target_1210:=[[154.739,153.287,0],[1,0,0,0],[0,0,0,0],[9E+09,9E+09,9E+09,9E+09,9E+09,9E+09]];
    CONST robtarget Target_1220:=[[152.299,153.891,0],[1,0,0,0],[0,0,0,0],[9E+09,9E+09,9E+09,9E+09,9E+09,9E+09]];
    CONST robtarget Target_1230:=[[149.509,152.293,0],[1,0,0,0],[0,0,0,0],[9E+09,9E+09,9E+09,9E+09,9E+09,9E+09]];
    CONST robtarget Target_1240:=[[149.03,150.002,0],[1,0,0,0],[0,0,0,0],[9E+09,9E+09,9E+09,9E+09,9E+09,9E+09]];
    CONST robtarget Target_1250:=[[150.943,146.95,0],[1,0,0,0],[0,0,0,0],[9E+09,9E+09,9E+09,9E+09,9E+09,9E+09]];
    CONST robtarget Target_1260:=[[153.738,144.62,0],[1,0,0,0],[0,0,0,0],[9E+09,9E+09,9E+09,9E+09,9E+09,9E+09]];
    CONST robtarget Target_1270:=[[157.068,143.302,0],[1,0,0,0],[0,0,0,0],[9E+09,9E+09,9E+09,9E+09,9E+09,9E+09]];
    CONST robtarget Target_1280:=[[159.822,144.454,0],[1,0,0,0],[0,0,0,0],[9E+09,9E+09,9E+09,9E+09,9E+09,9E+09]];
    CONST robtarget Target_1290:=[[166.766,136.556,0],[1,0,0,0],[0,0,0,0],[9E+09,9E+09,9E+09,9E+09,9E+09,9E+09]];
    CONST robtarget Target_1290_2:=[[166.766,136.556,-100],[1,0,0,0],[0,0,0,0],[9E+09,9E+09,9E+09,9E+09,9E+09,9E+09]];
    CONST robtarget Target_1300:=[[165.822,132.774,0],[1,0,0,0],[0,0,0,0],[9E+09,9E+09,9E+09,9E+09,9E+09,9E+09]];
    CONST robtarget Target_1310:=[[165.999,130.238,0],[1,0,0,0],[0,0,0,0],[9E+09,9E+09,9E+09,9E+09,9E+09,9E+09]];
    CONST robtarget Target_1320:=[[167.748,127.221,0],[1,0,0,0],[0,0,0,0],[9E+09,9E+09,9E+09,9E+09,9E+09,9E+09]];
    CONST robtarget Target_1330:=[[169.282,124.402,0],[1,0,0,0],[0,0,0,0],[9E+09,9E+09,9E+09,9E+09,9E+09,9E+09]];
    CONST robtarget Target_1340:=[[173.016,124.874,0],[1,0,0,0],[0,0,0,0],[9E+09,9E+09,9E+09,9E+09,9E+09,9E+09]];
    CONST robtarget Target_1350:=[[178.043,126.419,0],[1,0,0,0],[0,0,0,0],[9E+09,9E+09,9E+09,9E+09,9E+09,9E+09]];
    CONST robtarget Target_1360:=[[180.988,129.496,0],[1,0,0,0],[0,0,0,0],[9E+09,9E+09,9E+09,9E+09,9E+09,9E+09]];
    CONST robtarget Target_1370:=[[181.569,135.233,0],[1,0,0,0],[0,0,0,0],[9E+09,9E+09,9E+09,9E+09,9E+09,9E+09]];
    CONST robtarget Target_1380:=[[177.688,139.653,0],[1,0,0,0],[0,0,0,0],[9E+09,9E+09,9E+09,9E+09,9E+09,9E+09]];
    CONST robtarget Target_1390:=[[178.043,126.419,10],[1,0,0,0],[0,0,0,0],[9E+09,9E+09,9E+09,9E+09,9E+09,9E+09]];
    CONST robtarget Target_1400:=[[172.315,139.176,0],[1,0,0,0],[0,0,0,0],[9E+09,9E+09,9E+09,9E+09,9E+09,9E+09]];
    CONST robtarget Target_1410:=[[179.151,127.385,0],[1,0,0,0],[0,0,0,0],[9E+09,9E+09,9E+09,9E+09,9E+09,9E+09]];
    CONST robtarget Target_1420:=[[199.325,117.616,0],[1,0,0,0],[0,0,0,0],[9E+09,9E+09,9E+09,9E+09,9E+09,9E+09]];
    CONST robtarget Target_1420_2:=[[199.325,127.616,-100],[1,0,0,0],[0,0,0,0],[9E+09,9E+09,9E+09,9E+09,9E+09,9E+09]];
    CONST robtarget Target_1430:=[[179.238,113.872,0],[1,0,0,0],[0,0,0,0],[9E+09,9E+09,9E+09,9E+09,9E+09,9E+09]];
    CONST robtarget Target_1440:=[[175.533,111.78,0],[1,0,0,0],[0,0,0,0],[9E+09,9E+09,9E+09,9E+09,9E+09,9E+09]];
    CONST robtarget Target_1450:=[[174.365,110.051,0],[1,0,0,0],[0,0,0,0],[9E+09,9E+09,9E+09,9E+09,9E+09,9E+09]];
    CONST robtarget Target_1460:=[[173.591,107.037,0],[1,0,0,0],[0,0,0,0],[9E+09,9E+09,9E+09,9E+09,9E+09,9E+09]];
    CONST robtarget Target_1470:=[[174.132,104.138,0],[1,0,0,0],[0,0,0,0],[9E+09,9E+09,9E+09,9E+09,9E+09,9E+09]];
    CONST robtarget Target_1480:=[[175.939,101.605,0],[1,0,0,0],[0,0,0,0],[9E+09,9E+09,9E+09,9E+09,9E+09,9E+09]];
    CONST robtarget Target_1490:=[[177.651,100.413,0],[1,0,0,0],[0,0,0,0],[9E+09,9E+09,9E+09,9E+09,9E+09,9E+09]];
    CONST robtarget Target_1500:=[[181.862,99.796,0],[1,0,0,0],[0,0,0,0],[9E+09,9E+09,9E+09,9E+09,9E+09,9E+09]];
    CONST robtarget Target_1510:=[[184.825,100.348,0],[1,0,0,0],[0,0,0,0],[9E+09,9E+09,9E+09,9E+09,9E+09,9E+09]];
    CONST robtarget Target_1520:=[[191.035,50.838,0],[1,0,0,0],[0,0,0,0],[9E+09,9E+09,9E+09,9E+09,9E+09,9E+09]];
    CONST robtarget Target_1520_2:=[[191.035,50.838,-100],[1,0,0,0],[0,0,0,0],[9E+09,9E+09,9E+09,9E+09,9E+09,9E+09]];
    CONST robtarget Target_1530:=[[168.505,65.717,0],[1,0,0,0],[0,0,0,0],[9E+09,9E+09,9E+09,9E+09,9E+09,9E+09]];
    CONST robtarget Target_1540:=[[171.405,62.021,0],[1,0,0,0],[0,0,0,0],[9E+09,9E+09,9E+09,9E+09,9E+09,9E+09]];
    CONST robtarget Target_1550:=[[164.465,51.356,0],[1,0,0,0],[0,0,0,0],[9E+09,9E+09,9E+09,9E+09,9E+09,9E+09]];
    CONST robtarget Target_1560:=[[177.55,48.313,0],[1,0,0,0],[0,0,0,0],[9E+09,9E+09,9E+09,9E+09,9E+09,9E+09]];
    CONST robtarget Target_1570:=[[179.239,56.848,0],[1,0,0,0],[0,0,0,0],[9E+09,9E+09,9E+09,9E+09,9E+09,9E+09]];
    CONST robtarget Target_1580:=[[168.505,65.717,0],[1,0,0,0],[0,0,0,0],[9E+09,9E+09,9E+09,9E+09,9E+09,9E+09]];
    CONST robtarget Target_1580_2:=[[168.505,65.717,-100],[1,0,0,0],[0,0,0,0],[9E+09,9E+09,9E+09,9E+09,9E+09,9E+09]];
    CONST robtarget Target_1590:=[[151.995,45.439,0],[1,0,0,0],[0,0,0,0],[9E+09,9E+09,9E+09,9E+09,9E+09,9E+09]];
    CONST robtarget Target_1590_2:=[[151.995,45.439,-100],[1,0,0,0],[0,0,0,0],[9E+09,9E+09,9E+09,9E+09,9E+09,9E+09]];
    CONST robtarget Target_1600:=[[163.983,31.61,0],[1,0,0,0],[0,0,0,0],[9E+09,9E+09,9E+09,9E+09,9E+09,9E+09]];
    CONST robtarget Target_1600_2:=[[163.983,31.61,-100],[1,0,0,0],[0,0,0,0],[9E+09,9E+09,9E+09,9E+09,9E+09,9E+09]];
    CONST robtarget Target_1610:=[[167.667,28.478,0],[1,0,0,0],[0,0,0,0],[9E+09,9E+09,9E+09,9E+09,9E+09,9E+09]];
    CONST robtarget Target_1610_2:=[[167.667,28.478,-100],[1,0,0,0],[0,0,0,0],[9E+09,9E+09,9E+09,9E+09,9E+09,9E+09]];
    CONST robtarget Target_1620:=[[170.601,25.094,0],[1,0,0,0],[0,0,0,0],[9E+09,9E+09,9E+09,9E+09,9E+09,9E+09]];
    CONST robtarget Target_1620_2:=[[170.601,25.094,-100],[1,0,0,0],[0,0,0,0],[9E+09,9E+09,9E+09,9E+09,9E+09,9E+09]];
    CONST robtarget Target_1630:=[[155.162,24.918,0],[1,0,0,0],[0,0,0,0],[9E+09,9E+09,9E+09,9E+09,9E+09,9E+09]];
    CONST robtarget Target_1630_2:=[[155.162,24.918,-100],[1,0,0,0],[0,0,0,0],[9E+09,9E+09,9E+09,9E+09,9E+09,9E+09]];
    CONST robtarget Target_1640:=[[139.958,37.36,0],[1,0,0,0],[0,0,0,0],[9E+09,9E+09,9E+09,9E+09,9E+09,9E+09]];
    CONST robtarget Target_1650:=[[141.353,17.302,0],[1,0,0,0],[0,0,0,0],[9E+09,9E+09,9E+09,9E+09,9E+09,9E+09]];
    CONST robtarget Target_1650_2:=[[141.353,17.302,-100],[1,0,0,0],[0,0,0,0],[9E+09,9E+09,9E+09,9E+09,9E+09,9E+09]];
    CONST robtarget Target_1660:=[[125.471,31.431,0],[1,0,0,0],[0,0,0,0],[9E+09,9E+09,9E+09,9E+09,9E+09,9E+09]];
    CONST robtarget Target_1660_2:=[[125.471,31.431,-100],[1,0,0,0],[0,0,0,0],[9E+09,9E+09,9E+09,9E+09,9E+09,9E+09]];
    CONST robtarget Target_1670:=[[125.641,17.508,0],[1,0,0,0],[0,0,0,0],[9E+09,9E+09,9E+09,9E+09,9E+09,9E+09]];
    CONST robtarget Target_1680:=[[118.037,13.28,0],[1,0,0,0],[0,0,0,0],[9E+09,9E+09,9E+09,9E+09,9E+09,9E+09]];
    CONST robtarget Target_1690:=[[111.901,25.231,0],[1,0,0,0],[0,0,0,0],[9E+09,9E+09,9E+09,9E+09,9E+09,9E+09]];
    CONST robtarget Target_1700:=[[127.646,13.26,10],[1,0,0,0],[0,0,0,0],[9E+09,9E+09,9E+09,9E+09,9E+09,9E+09]];
    CONST robtarget Target_1710:=[[124.526,26.829,0],[1,0,0,0],[0,0,0,0],[9E+09,9E+09,9E+09,9E+09,9E+09,9E+09]];
    CONST robtarget Target_1720:=[[127.646,13.26,0],[1,0,0,0],[0,0,0,0],[9E+09,9E+09,9E+09,9E+09,9E+09,9E+09]];
    CONST robtarget Target_1720_2:=[[127.646,13.26,-100],[1,0,0,0],[0,0,0,0],[9E+09,9E+09,9E+09,9E+09,9E+09,9E+09]];
    CONST robtarget Target_1730:=[[83.457,35.281,0],[1,0,0,0],[0,0,0,0],[9E+09,9E+09,9E+09,9E+09,9E+09,9E+09]];
    CONST robtarget Target_1730_2:=[[83.457,35.281,-100],[1,0,0,0],[0,0,0,0],[9E+09,9E+09,9E+09,9E+09,9E+09,9E+09]];
    CONST robtarget Target_1740:=[[75.876,8.829,0],[1,0,0,0],[0,0,0,0],[9E+09,9E+09,9E+09,9E+09,9E+09,9E+09]];
    CONST robtarget Target_1750:=[[85.315,6.125,0],[1,0,0,0],[0,0,0,0],[9E+09,9E+09,9E+09,9E+09,9E+09,9E+09]];
    CONST robtarget Target_1760:=[[97.458,13.642,0],[1,0,0,0],[0,0,0,0],[9E+09,9E+09,9E+09,9E+09,9E+09,9E+09]];
    CONST robtarget Target_1770:=[[92.895,32.577,0],[1,0,0,0],[0,0,0,0],[9E+09,9E+09,9E+09,9E+09,9E+09,9E+09]];
    CONST robtarget Target_680_2:=[[48.091,116.157,-100],[1,0,0,0],[1,-1,0,0],[9E+09,9E+09,9E+09,9E+09,9E+09,9E+09]];
    CONST robtarget Target_740_2:=[[44.658,91.73,-100],[1,0,0,0],[1,-1,0,0],[9E+09,9E+09,9E+09,9E+09,9E+09,9E+09]];
    CONST robtarget Target_760_2:=[[20.086,75.712,-100],[1,0,0,0],[1,-1,0,0],[9E+09,9E+09,9E+09,9E+09,9E+09,9E+09]];
    CONST robtarget Target_550_2:=[[64.63,157.826,-150],[1,0,0,0],[0,0,0,0],[9E+09,9E+09,9E+09,9E+09,9E+09,9E+09]];
    CONST robtarget Target_1410_2:=[[179.151,127.385,-100],[1,0,0,0],[0,0,0,0],[9E+09,9E+09,9E+09,9E+09,9E+09,9E+09]];
    CONST robtarget Target_1120_2:=[[148.754,178.564,-100],[1,0,0,0],[0,0,0,0],[9E+09,9E+09,9E+09,9E+09,9E+09,9E+09]];
    CONST robtarget Target_1100_2:=[[125.361,158.43,-100],[1,0,0,0],[0,0,0,0],[9E+09,9E+09,9E+09,9E+09,9E+09,9E+09]];
    CONST robtarget Target_1010_2:=[[114.815,165.034,-100],[1,0,0,0],[0,0,0,0],[9E+09,9E+09,9E+09,9E+09,9E+09,9E+09]];
    CONST robtarget Target_1120_3:=[[138.754,178.564,-50],[1,0,0,0],[0,0,0,0],[9E+09,9E+09,9E+09,9E+09,9E+09,9E+09]];
    CONST robtarget Target_1100_3:=[[125.361,158.43,-50],[1,0,0,0],[1,-1,0,0],[9E+09,9E+09,9E+09,9E+09,9E+09,9E+09]];
    CONST robtarget Target_1010_3:=[[114.815,165.034,-50],[1,0,0,0],[1,-1,0,0],[9E+09,9E+09,9E+09,9E+09,9E+09,9E+09]];
    !PERS tooldata MyNewTool:=[TRUE,[[91.0235,1.18057,112.458],[1,0,0,0]],[1,[0,0,0],[1,0,0,0],0,0,0]];
    PERS tooldata MyNewTool:=[TRUE,[[96.456,-0.66,122.124],[0.866025404,0,0.5,0]],[1,[0,0,1],[1,0,0,0],0,0,0]];
    !TASK PERS wobjdata Workobject_2:=[FALSE,TRUE,"",[[0,0,38],[1,0,0,0]],[[-457,420,275],[0,-0.707106781,0.707106781,0]]];
    CONST robtarget Target_preMantenimieto:=[[976.918606745,-714.358184604,-342.904417085],[0.214210967,0.097162531,-0.021419297,0.971706909],[-1,0,-1,0],[9E+09,9E+09,9E+09,9E+09,9E+09,9E+09]];
    CONST robtarget Target_Mantenimiento:=[[1209.352519383,-451.515367135,-415.118860115],[0.002959663,-0.249129411,-0.000761348,-0.968465383],[-2,0,-1,0],[9E+09,9E+09,9E+09,9E+09,9E+09,9E+09]];
    CONST robtarget Target_Intermedio:=[[-3.826086878,-215.660000024,-364.904567462],[1,0,-0.000000008,0],[-1,0,-1,0],[9E+09,9E+09,9E+09,9E+09,9E+09,9E+09]];
    TASK PERS wobjdata Workobject_2:=[FALSE,TRUE,"",[[0,0,-3],[1,0,0,0]],[[-461.241,432.8,307.394],[0.0249132,0.706674,-0.706892,-0.0171578]]];
    TASK PERS wobjdata wobjYA:=[FALSE,TRUE,"",[[0,0,0],[1,0,0,0]],[[-461.241,432.8,307.394],[0.0249132,0.706674,-0.706892,-0.0171578]]];

    PROC main()
        WHILE TRUE DO
            Reset DO_01;
            Reset DO_03;
            Path_10;
            IF DI_03=1 THEN
                Set FWD_Conveyor;
                WaitTime 3;
                Reset FWD_Conveyor;
            ENDIF
            IF DI_02=1 THEN
                Path_01;
                Set DO_03;
                WHILE DI_02=0 DO
                    WaitTime 10;
                ENDWHILE
                Reset DO_03;
            ELSEIF DI_01=1 THEN
                Set DO_01;
                Set BWD_Conveyor;
                Set FWD_Conveyor;
                WaitTime 3;
                Reset BWD_Conveyor;
                Reset FWD_Conveyor;
                Path_10;
                Path_170;
                Path_190;
                Path_200;
                Path_210;
                Path_10;
                Set BWD_Conveyor;
                Set FWD_Conveyor;
                WaitTime 5;
                Reset FWD_Conveyor;
                Reset BWD_Conveyor;
                Reset DO_01;
            ELSE
                Path_10;
            ENDIF
        ENDWHILE
    ENDPROC
    PROC Path_10()
        MoveJ Target_Home,v100,z1,MyNewTool\WObj:=wobj0;
    ENDPROC
    PROC Path_170()
        MoveJ Target_Intermedio,v100,z1,MyNewTool\WObj:=Workobject_2;
        MoveJ Target_20,v100,z1,MyNewTool\WObj:=Workobject_2;
        MoveL Target_20_2,v100,z1,MyNewTool\WObj:=Workobject_2;
        MoveL Target_30,v100,z1,MyNewTool\WObj:=Workobject_2;
        MoveC Target_40,Target_50,v100,z1,MyNewTool\WObj:=Workobject_2;
        MoveC Target_60,Target_30,v100,z1,MyNewTool\WObj:=Workobject_2;
        MoveL Target_70,v100,z1,MyNewTool\WObj:=Workobject_2;
        MoveL Target_80,v100,z1,MyNewTool\WObj:=Workobject_2;
        MoveC Target_90,Target_100,v100,z1,MyNewTool\WObj:=Workobject_2;
        MoveC Target_110,Target_80,v100,z1,MyNewTool\WObj:=Workobject_2;
        MoveL Target_120,v100,z1,MyNewTool\WObj:=Workobject_2;
        MoveL Target_130,v100,z1,MyNewTool\WObj:=Workobject_2;
        MoveC Target_140,Target_150,v100,z1,MyNewTool\WObj:=Workobject_2;
        MoveC Target_160,Target_130,v100,z1,MyNewTool\WObj:=Workobject_2;
        MoveL Target_170,v100,z1,MyNewTool\WObj:=Workobject_2;
        MoveL Target_180,v100,z1,MyNewTool\WObj:=Workobject_2;
        MoveC Target_190,Target_200,v100,z1,MyNewTool\WObj:=Workobject_2;
        MoveC Target_210,Target_180,v100,z1,MyNewTool\WObj:=Workobject_2;
        MoveL Target_220,v100,z1,MyNewTool\WObj:=Workobject_2;
        MoveL Target_230,v100,z1,MyNewTool\WObj:=Workobject_2;
        MoveC Target_240,Target_250,v100,z1,MyNewTool\WObj:=Workobject_2;
        MoveC Target_260,Target_230,v100,z1,MyNewTool\WObj:=Workobject_2;
        MoveL Target_270,v100,z1,MyNewTool\WObj:=Workobject_2;
        MoveL Target_280,v100,z1,MyNewTool\WObj:=Workobject_2;
        MoveC Target_290,Target_300,v100,z1,MyNewTool\WObj:=Workobject_2;
        MoveC Target_310,Target_280,v100,z1,MyNewTool\WObj:=Workobject_2;
        MoveL Target_320,v100,z1,MyNewTool\WObj:=Workobject_2;
        MoveL Target_330,v100,z1,MyNewTool\WObj:=Workobject_2;
        MoveC Target_340,Target_350,v100,z1,MyNewTool\WObj:=Workobject_2;
        MoveC Target_360,Target_330,v100,z1,MyNewTool\WObj:=Workobject_2;
        MoveL Target_370,v100,z1,MyNewTool\WObj:=Workobject_2;
        MoveL Target_380,v100,z1,MyNewTool\WObj:=Workobject_2;
        MoveC Target_390,Target_400,v100,z1,MyNewTool\WObj:=Workobject_2;
        MoveC Target_410,Target_380,v100,z1,MyNewTool\WObj:=Workobject_2;
        MoveL Target_20_2,v100,z1,MyNewTool\WObj:=Workobject_2;
        MoveJ Target_20,v100,z1,MyNewTool\WObj:=Workobject_2;
    ENDPROC
    PROC Path_190()
        MoveL Target_420_2,v100,z1,MyNewTool\WObj:=Workobject_2;
        MoveL Target_420,v100,z1,MyNewTool\WObj:=Workobject_2;
        MoveC Target_430,Target_440,v100,z1,MyNewTool\WObj:=Workobject_2;
        MoveC Target_450,Target_420,v100,z1,MyNewTool\WObj:=Workobject_2;
        MoveL Target_420_2,v100,z1,MyNewTool\WObj:=Workobject_2;
    ENDPROC
    PROC Path_200()
        MoveL Target_460_2,v100,z1,MyNewTool\WObj:=Workobject_2;
        MoveL Target_460,v100,z1,MyNewTool\WObj:=Workobject_2;
        MoveC Target_470,Target_480,v100,z1,MyNewTool\WObj:=Workobject_2;
        MoveC Target_490,Target_460,v100,z1,MyNewTool\WObj:=Workobject_2;
        MoveL Target_460_2,v100,z1,MyNewTool\WObj:=Workobject_2;
    ENDPROC
    PROC Path_210()
        MoveJ Target_500_2,v100,z1,MyNewTool\WObj:=Workobject_2;
        MoveL Target_500,v100,z1,MyNewTool\WObj:=Workobject_2;
        MoveL Target_510,v100,z1,MyNewTool\WObj:=Workobject_2;
        MoveL Target_520,v100,z1,MyNewTool\WObj:=Workobject_2;
        MoveC Target_530, Target_540,v100,z1,MyNewTool\WObj:=Workobject_2;
        MoveL Target_550,v100,z1,MyNewTool\WObj:=Workobject_2;
        !MoveL Target_550_2,v100,z1,MyNewTool\WObj:=Workobject_2;
        MoveJ Target_560_2,v100,z1,MyNewTool\WObj:=Workobject_2;
        MoveL Target_560,v100,z1,MyNewTool\WObj:=Workobject_2;
        MoveL Target_570,v100,z1,MyNewTool\WObj:=Workobject_2;
        MoveL Target_580,v100,z1,MyNewTool\WObj:=Workobject_2;
        MoveL Target_590,v100,z1,MyNewTool\WObj:=Workobject_2;
        MoveL Target_600,v100,z1,MyNewTool\WObj:=Workobject_2;
        MoveL Target_610,v100,z1,MyNewTool\WObj:=Workobject_2;
        MoveL Target_620,v100,z1,MyNewTool\WObj:=Workobject_2;
        MoveL Target_630,v100,z1,MyNewTool\WObj:=Workobject_2;
        MoveL Target_640,v100,z1,MyNewTool\WObj:=Workobject_2;
        MoveL Target_650,v100,z1,MyNewTool\WObj:=Workobject_2;
        MoveL Target_660,v100,z1,MyNewTool\WObj:=Workobject_2;
        MoveL Target_670,v100,z1,MyNewTool\WObj:=Workobject_2;
        MoveL Target_680,v100,z1,MyNewTool\WObj:=Workobject_2;
        MoveJ Target_680_2,v100,z1,MyNewTool\WObj:=Workobject_2;
        MoveL Target_690,v100,z1,MyNewTool\WObj:=Workobject_2;
        MoveL Target_700,v100,z1,MyNewTool\WObj:=Workobject_2;
        MoveC Target_710,Target_720,v100,z1,MyNewTool\WObj:=Workobject_2;
        MoveL Target_730,v100,z1,MyNewTool\WObj:=Workobject_2;
        MoveL Target_740,v100,z1,MyNewTool\WObj:=Workobject_2;
        MoveL Target_740_2,v100,z1,MyNewTool\WObj:=Workobject_2;
        MoveL Target_750,v100,z1,MyNewTool\WObj:=Workobject_2;
        MoveL Target_760,v100,z1,MyNewTool\WObj:=Workobject_2;
        MoveJ Target_760_2,v100,z1,MyNewTool\WObj:=Workobject_2;
        MoveJ Target_770j_2,v100,z1,MyNewTool\WObj:=Workobject_2;
        MoveL Target_770j,v100,z1,MyNewTool\WObj:=Workobject_2;
        MoveL Target_780,v100,z1,MyNewTool\WObj:=Workobject_2;
        MoveC Target_790,Target_800,v100,z1,MyNewTool\WObj:=Workobject_2;
        MoveC Target_810,Target_820,v100,z1,MyNewTool\WObj:=Workobject_2;
        MoveC Target_830,Target_840,v100,z1,MyNewTool\WObj:=Workobject_2;
        MoveL Target_850,v100,z1,MyNewTool\WObj:=Workobject_2;
        MoveL Target_850_2,v100,z1,MyNewTool\WObj:=Workobject_2;
        !Nueva trayectoria
        MoveJ Target_1730_2,v100,z1,MyNewTool\WObj:=Workobject_2;
        MoveL Target_1730,v100,z1,MyNewTool\WObj:=Workobject_2;
        MoveL Target_1740,v100,z1,MyNewTool\WObj:=Workobject_2;
        MoveL Target_1750,v100,z1,MyNewTool\WObj:=Workobject_2;
        MoveC Target_1760,Target_1770,v100,z1,MyNewTool\WObj:=Workobject_2;
        MoveL Target_1730,v100,z1,MyNewTool\WObj:=Workobject_2;
        MoveJ Target_1730_2,v100,z1,MyNewTool\WObj:=Workobject_2;
        MoveJ Target_1720_2,v100,z1,MyNewTool\WObj:=Workobject_2;
        MoveL Target_1720,v100,z1,MyNewTool\WObj:=Workobject_2;
        MoveL Target_1710,v100,z1,MyNewTool\WObj:=Workobject_2;
        MoveC Target_1690,Target_1680,v100,z1,MyNewTool\WObj:=Workobject_2;
        MoveL Target_1670,v100,z1,MyNewTool\WObj:=Workobject_2;
        MoveL Target_1660,v100,z1,MyNewTool\WObj:=Workobject_2;
        MoveJ Target_1660_2,v100,z1,MyNewTool\WObj:=Workobject_2;
        MoveJ Target_1650_2,v100,z1,MyNewTool\WObj:=Workobject_2;
        MoveL Target_1650,v100,z1,MyNewTool\WObj:=Workobject_2;
        MoveL Target_1640,v100,z1,MyNewTool\WObj:=Workobject_2;
        MoveL Target_1630,v100,z1,MyNewTool\WObj:=Workobject_2;
        MoveJ Target_1630_2,v100,z1,MyNewTool\WObj:=Workobject_2;
        MoveJ Target_1620_2,v100,z1,MyNewTool\WObj:=Workobject_2;
        MoveL Target_1620,v100,z1,MyNewTool\WObj:=Workobject_2;
        MoveL Target_1610,v100,z1,MyNewTool\WObj:=Workobject_2;
        MoveJ Target_1610_2,v100,z1,MyNewTool\WObj:=Workobject_2;
        MoveJ Target_1600_2,v100,z1,MyNewTool\WObj:=Workobject_2;
        MoveL Target_1600,v100,z1,MyNewTool\WObj:=Workobject_2;
        MoveL Target_1590,v100,z1,MyNewTool\WObj:=Workobject_2;
        MoveJ Target_1590_2,v100,z1,MyNewTool\WObj:=Workobject_2;
        MoveJ Target_1580_2,v100,z1,MyNewTool\WObj:=Workobject_2;
        MoveL Target_1580,v100,z1,MyNewTool\WObj:=Workobject_2;
        MoveL Target_1570,v100,z1,MyNewTool\WObj:=Workobject_2;
        MoveC Target_1560,Target_1550,v100,z1,MyNewTool\WObj:=Workobject_2;
        MoveC Target_1540,Target_1570,v100,z1,MyNewTool\WObj:=Workobject_2;
        MoveL Target_1520,v100,z1,MyNewTool\WObj:=Workobject_2;
        MoveJ Target_1520_2,v100,z1,MyNewTool\WObj:=Workobject_2;
        MoveL Target_1510,v100,z1,MyNewTool\WObj:=Workobject_2;
        MoveL Target_1500,v100,z1,MyNewTool\WObj:=Workobject_2;
        MoveL Target_1490,v100,z1,MyNewTool\WObj:=Workobject_2;
        MoveL Target_1480,v100,z1,MyNewTool\WObj:=Workobject_2;
        MoveL Target_1470,v100,z1,MyNewTool\WObj:=Workobject_2;
        MoveL Target_1460,v100,z1,MyNewTool\WObj:=Workobject_2;
        MoveL Target_1450,v100,z1,MyNewTool\WObj:=Workobject_2;
        MoveL Target_1440,v100,z1,MyNewTool\WObj:=Workobject_2;
        MoveL Target_1430,v100,z1,MyNewTool\WObj:=Workobject_2;
        MoveL Target_1420,v100,z1,MyNewTool\WObj:=Workobject_2;
        !MoveL Target_1420_2,v100,z1,MyNewTool\WObj:=Workobject_2;
        MoveJ Target_1410_2,v100,z1,MyNewTool\WObj:=Workobject_2;
        MoveL Target_1410,v100,z1,MyNewTool\WObj:=Workobject_2;
        MoveL Target_1400,v100,z1,MyNewTool\WObj:=Workobject_2;
        MoveL Target_1380,v100,z1,MyNewTool\WObj:=Workobject_2;
        MoveL Target_1370,v100,z1,MyNewTool\WObj:=Workobject_2;
        MoveL Target_1360,v100,z1,MyNewTool\WObj:=Workobject_2;
        MoveL Target_1350,v100,z1,MyNewTool\WObj:=Workobject_2;
        MoveL Target_1340,v100,z1,MyNewTool\WObj:=Workobject_2;
        MoveL Target_1330,v100,z1,MyNewTool\WObj:=Workobject_2;
        MoveL Target_1320,v100,z1,MyNewTool\WObj:=Workobject_2;
        MoveL Target_1310,v100,z1,MyNewTool\WObj:=Workobject_2;
        MoveL Target_1300,v100,z1,MyNewTool\WObj:=Workobject_2;
        MoveL Target_1290,v100,z1,MyNewTool\WObj:=Workobject_2;
        MoveJ Target_1290_2,v100,z1,MyNewTool\WObj:=Workobject_2;
        MoveL Target_1280,v100,z1,MyNewTool\WObj:=Workobject_2;
        MoveL Target_1270,v100,z1,MyNewTool\WObj:=Workobject_2;
        MoveL Target_1260,v100,z1,MyNewTool\WObj:=Workobject_2;
        MoveL Target_1250,v100,z1,MyNewTool\WObj:=Workobject_2;
        MoveL Target_1240,v100,z1,MyNewTool\WObj:=Workobject_2;
        MoveL Target_1230,v100,z1,MyNewTool\WObj:=Workobject_2;
        MoveL Target_1220,v100,z1,MyNewTool\WObj:=Workobject_2;
        MoveL Target_1210,v100,z1,MyNewTool\WObj:=Workobject_2;
        MoveL Target_1200,v100,z1,MyNewTool\WObj:=Workobject_2;
        MoveL Target_1190,v100,z1,MyNewTool\WObj:=Workobject_2;
        MoveL Target_1180,v100,z1,MyNewTool\WObj:=Workobject_2;
        MoveL Target_1170,v100,z1,MyNewTool\WObj:=Workobject_2;
        MoveL Target_1160,v100,z1,MyNewTool\WObj:=Workobject_2;
        MoveL Target_1150,v100,z1,MyNewTool\WObj:=Workobject_2;
        MoveL Target_1140,v100,z1,MyNewTool\WObj:=Workobject_2;
        MoveL Target_1130,v100,z1,MyNewTool\WObj:=Workobject_2;
        MoveJ Target_1120_3,v100,z1,MyNewTool\WObj:=Workobject_2;
        !MoveL Target_1130_2,v100,z1,MyNewTool\WObj:=Workobject_2;
        !MoveL Target_1120_2,v100,z1,MyNewTool\WObj:=Workobject_2;
        MoveL Target_1120,v100,z1,MyNewTool\WObj:=Workobject_2;
        MoveL Target_1110,v100,z1,MyNewTool\WObj:=Workobject_2;
        !MoveL Target_1110_2,v100,z1,MyNewTool\WObj:=Workobject_2;
        !MoveL Target_1100,v100,z1,MyNewTool\WObj:=Workobject_2;
        !MoveL Target_1100_2,v100,z1,MyNewTool\WObj:=Workobject_2;
        MoveJ Target_1100_3,v100,z1,MyNewTool\WObj:=Workobject_2;
        MoveL Target_1100,v100,z1,MyNewTool\WObj:=Workobject_2;
        MoveL Target_1090,v100,z1,MyNewTool\WObj:=Workobject_2;
        MoveL Target_1080,v100,z1,MyNewTool\WObj:=Workobject_2;
        MoveL Target_1070,v100,z1,MyNewTool\WObj:=Workobject_2;
        MoveL Target_1060,v100,z1,MyNewTool\WObj:=Workobject_2;
        MoveL Target_1050,v100,z1,MyNewTool\WObj:=Workobject_2;
        MoveL Target_1040,v100,z1,MyNewTool\WObj:=Workobject_2;
        MoveL Target_1030,v100,z1,MyNewTool\WObj:=Workobject_2;
        MoveL Target_1020,v100,z1,MyNewTool\WObj:=Workobject_2;
        !MoveL Target_1020_2,v100,z1,MyNewTool\WObj:=Workobject_2;
        !MoveL Target_1010_2,v100,z1,MyNewTool\WObj:=Workobject_2;
        MoveJ Target_1010_3,v100,z1,MyNewTool\WObj:=Workobject_2;
        MoveL Target_1000,v100,z1,MyNewTool\WObj:=Workobject_2;
        MoveL Target_990,v100,z1,MyNewTool\WObj:=Workobject_2;
        MoveL Target_980,v100,z1,MyNewTool\WObj:=Workobject_2;
        MoveL Target_970,v100,z1,MyNewTool\WObj:=Workobject_2;
        MoveL Target_960,v100,z1,MyNewTool\WObj:=Workobject_2;
        MoveL Target_950,v100,z1,MyNewTool\WObj:=Workobject_2;
        MoveL Target_940,v100,z1,MyNewTool\WObj:=Workobject_2;
        MoveL Target_930,v100,z1,MyNewTool\WObj:=Workobject_2;
        MoveL Target_920,v100,z1,MyNewTool\WObj:=Workobject_2;
        MoveL Target_910,v100,z1,MyNewTool\WObj:=Workobject_2;
        MoveL Target_900,v100,z1,MyNewTool\WObj:=Workobject_2;
        MoveL Target_890,v100,z1,MyNewTool\WObj:=Workobject_2;
        MoveL Target_880,v100,z1,MyNewTool\WObj:=Workobject_2;
        MoveL Target_870,v100,z1,MyNewTool\WObj:=Workobject_2;
        MoveL Target_860,v100,z1,MyNewTool\WObj:=Workobject_2;
        !MoveL Target_860_2,v100,z1,MyNewTool\WObj:=Workobject_2;
        MoveJ Target_Intermedio,v100,z1,MyNewTool\WObj:=Workobject_2;
    ENDPROC
    PROC Path_Prehome()
        !MoveJ Target_860,v100,z1;
    ENDPROC
    PROC Path_20()
        MoveL Target_Home,v100,z1,MyNewTool\WObj:=wobj0;
        MoveL Target_20,v100,z1,MyNewTool\WObj:=Workobject_2;
    ENDPROC
    PROC Path_30()
        MoveL Target_20,v100,z1,MyNewTool\WObj:=Workobject_2;
        MoveL Target_20_2,v100,z1,MyNewTool\WObj:=Workobject_2;
    ENDPROC
    PROC Path_40()
        MoveL Target_20_2,v100,z1,MyNewTool\WObj:=Workobject_2;
        MoveL Target_30,v100,z1,MyNewTool\WObj:=Workobject_2;
    ENDPROC
    PROC Path_50()
        MoveC Target_40,Target_50,v100,z1,MyNewTool\WObj:=Workobject_2;
    ENDPROC
    PROC Path_60()
        MoveC Target_60,Target_30,v100,z1,MyNewTool\WObj:=Workobject_2;
    ENDPROC
    PROC Path_180()

    ENDPROC
    PROC Path_01()
        MoveJ Target_preMantenimieto,v100,z1,MyNewTool\WObj:=Workobject_2;
        MoveJ Target_Mantenimiento,v100,z1,MyNewTool\WObj:=Workobject_2;
    ENDPROC
ENDMODULE